svg/education/book_2_line.svg

<?xml version="1.0" encoding="UTF-8"?>
<svg width="24px" height="24px" viewBox="0 0 24 24" version="1.1" xmlns="http://www.w3.org/2000/svg" xmlns:xlink="http://www.w3.org/1999/xlink">
    <title>book_2_line</title>
    <g id="页面-1" stroke="none" stroke-width="1" fill="none" fill-rule="evenodd">
        <g id="Education" transform="translate(-144.000000, 0.000000)" fill-rule="nonzero">
            <g id="book_2_line" transform="translate(144.000000, 0.000000)">
                 <path d="M24,0 L24,24 L0,24 L0,0 L24,0 Z M12.5934901,23.257841 L12.5819402,23.2595131 L12.5108777,23.2950439 L12.4918791,23.2987469 L12.4918791,23.2987469 L12.4767152,23.2950439 L12.4056548,23.2595131 C12.3958229,23.2563662 12.3870493,23.2590235 12.3821421,23.2649074 L12.3780323,23.275831 L12.360941,23.7031097 L12.3658947,23.7234994 L12.3769048,23.7357139 L12.4804777,23.8096931 L12.4953491,23.8136134 L12.4953491,23.8136134 L12.5071152,23.8096931 L12.6106902,23.7357139 L12.6232938,23.7196733 L12.6232938,23.7196733 L12.6266527,23.7031097 L12.609561,23.275831 C12.6075724,23.2657013 12.6010112,23.2592993 12.5934901,23.257841 L12.5934901,23.257841 Z M12.8583906,23.1452862 L12.8445485,23.1473072 L12.6598443,23.2396597 L12.6498822,23.2499052 L12.6498822,23.2499052 L12.6471943,23.2611114 L12.6650943,23.6906389 L12.6699349,23.7034178 L12.6699349,23.7034178 L12.678386,23.7104931 L12.8793402,23.8032389 C12.8914285,23.8068999 12.9022333,23.8029875 12.9078286,23.7952264 L12.9118235,23.7811639 L12.8776777,23.1665331 C12.8752882,23.1545897 12.8674102,23.1470016 12.8583906,23.1452862 L12.8583906,23.1452862 Z M12.1430473,23.1473072 C12.1332178,23.1423925 12.1221763,23.1452606 12.1156365,23.1525954 L12.1099173,23.1665331 L12.0757714,23.7811639 C12.0751323,23.7926639 12.0828099,23.8018602 12.0926481,23.8045676 L12.108256,23.8032389 L12.3092106,23.7104931 L12.3186497,23.7024347 L12.3186497,23.7024347 L12.3225043,23.6906389 L12.340401,23.2611114 L12.337245,23.2485176 L12.337245,23.2485176 L12.3277531,23.2396597 L12.1430473,23.1473072 Z" id="MingCute" fill-rule="nonzero"></path>
                <path d="M18,2 C19.1046,2 20,2.89543 20,4 L20,16.99 C20,17.1576 19.9623,17.3115 19.8872,17.4617 L19.3416,18.5528 C19.2009,18.8343 19.2009,19.1657 19.3416,19.4472 L19.8854,20.5348 C19.9586,20.6737 20,20.832 20,21 C20,21.5523 19.5523,22 19,22 L7,22 C5.34315,22 4,20.6569 4,19 L4,5 C4,3.34315 5.34315,2 7,2 L18,2 Z M17.4076,18 L7,18 C6.44772,18 6,18.4477 6,19 C6,19.51285 6.38604429,19.9355092 6.88337975,19.9932725 L7,20 L17.4076,20 C17.2043111,19.4250667 17.1817235,18.803042 17.339837,18.2176439 L17.4076,18 Z M18,4 L7,4 C6.48716857,4 6.06449347,4.38604429 6.0067278,4.88337975 L6,5 L6,16.1707 C6.250224,16.0823 6.51568,16.026092 6.79138112,16.0071448 L7,16 L18,16 L18,4 Z M14,7 C14.5523,7 15,7.44772 15,8 C15,8.51283143 14.613973,8.93550653 14.1166239,8.9932722 L14,9 L10,9 C9.44772,9 9,8.55228 9,8 C9,7.48716857 9.38604429,7.06449347 9.88337975,7.0067278 L10,7 L14,7 Z" id="形状" fill="#09244B"></path>
            </g>
        </g>
    </g>
</svg>

<svg xmlns="http://www.w3.org/2000/svg" width="24" height="24"><g fill="none" fill-rule="nonzero"><path d="M24 0v24H0V0h24ZM12.593 23.258l-.011.002-.071.035-.02.004-.014-.004-.071-.035c-.01-.004-.019-.001-.024.005l-.004.01-.017.428.005.02.01.013.104.074.015.004.012-.004.104-.074.012-.016.004-.017-.017-.427c-.002-.01-.009-.017-.017-.018Zm.265-.113-.013.002-.185.093-.01.01-.003.011.018.43.005.012.008.007.201.093c.012.004.023 0 .029-.008l.004-.014-.034-.614c-.003-.012-.01-.02-.02-.022Zm-.715.002a.023.023 0 0 0-.027.006l-.006.014-.034.614c0 .012.007.02.017.024l.015-.002.201-.093.01-.008.004-.011.017-.43-.003-.012-.01-.01-.184-.092Z"/><path fill="#09244B" d="M18 2a2 2 0 0 1 2 2v12.99c0 .168-.038.322-.113.472l-.545 1.09a1 1 0 0 0 0 .895l.543 1.088A1 1 0 0 1 19 22H7a3 3 0 0 1-3-3V5a3 3 0 0 1 3-3h11Zm-.592 16H7a1 1 0 0 0-.117 1.993L7 20h10.408a3.001 3.001 0 0 1-.068-1.782l.068-.218ZM18 4H7a1 1 0 0 0-.993.883L6 5v11.17c.25-.088.516-.144.791-.163L7 16h11V4Zm-4 3a1 1 0 0 1 .117 1.993L14 9h-4a1 1 0 0 1-.117-1.993L10 7h4Z"/></g></svg>
